images/usecases/health-care/summary.svg

<svg width="295" height="374" viewBox="0 0 295 374" fill="none" xmlns="http://www.w3.org/2000/svg">
<rect y="0.212402" width="294.919" height="421" rx="8" fill="url(#paint0_linear_10985_1642)" fill-opacity="0.2"/>
<path d="M68.4577 61.7049L68.4579 61.7047C68.7573 61.3852 68.9908 61.0098 69.1451 60.6001C69.2995 60.1903 69.3716 59.7542 69.3573 59.3165C69.3431 58.8789 69.2428 58.4484 69.0622 58.0495C68.8815 57.6506 68.6241 57.2912 68.3046 56.9918C67.9851 56.6925 67.6097 56.4589 67.2 56.3046C66.7902 56.1503 66.354 56.0782 65.9164 56.0924C65.4788 56.1067 65.0482 56.207 64.6494 56.3876C64.2505 56.5682 63.8911 56.8257 63.5917 57.1452L55.6045 65.6687L51.9025 62.3799L51.895 62.3732L51.8873 62.3668C51.2222 61.8139 50.3682 61.5412 49.5057 61.6062C48.6432 61.6713 47.8398 62.0691 47.2652 62.7155C46.6906 63.362 46.3897 64.2065 46.4262 65.0707C46.4627 65.9348 46.8337 66.751 47.4608 67.3467L47.4681 67.3536L47.4757 67.3603L53.6015 72.8056L53.6017 72.8057C54.2506 73.3822 55.0988 73.6827 55.9659 73.6435C56.833 73.6043 57.6506 73.2284 58.2449 72.5957L58.2452 72.5954L68.4577 61.7049ZM35.0498 42.063C37.4882 39.6246 40.7955 38.2547 44.2439 38.2547H71.4701C74.9185 38.2547 78.2257 39.6246 80.6642 42.063C83.1026 44.5014 84.4725 47.8086 84.4725 51.2571V78.4832C84.4725 81.9317 83.1026 85.2389 80.6642 87.6773C78.2257 90.1158 74.9185 91.4857 71.4701 91.4857H44.2439C40.7955 91.4857 37.4882 90.1158 35.0498 87.6773C32.6114 85.2389 31.2415 81.9317 31.2415 78.4832L31.2415 51.2571C31.2415 47.8086 32.6114 44.5014 35.0498 42.063Z" fill="white" stroke="white" stroke-width="1.22125"/>
<path d="M108.891 51.2603L258.634 51.2603M108.891 78.4864L178.658 78.4864" stroke="white" stroke-width="5.49561" stroke-linecap="round" stroke-linejoin="round"/>
<path d="M68.4577 150.188L68.4579 150.188C68.7573 149.869 68.9908 149.493 69.1451 149.083C69.2995 148.674 69.3716 148.238 69.3573 147.8C69.3431 147.362 69.2428 146.932 69.0622 146.533C68.8815 146.134 68.6241 145.775 68.3046 145.475C67.9851 145.176 67.6097 144.942 67.2 144.788C66.7902 144.634 66.354 144.562 65.9164 144.576C65.4788 144.59 65.0482 144.69 64.6494 144.871C64.2505 145.052 63.8911 145.309 63.5917 145.629L55.6045 154.152L51.9025 150.863L51.895 150.857L51.8873 150.85C51.2222 150.297 50.3682 150.025 49.5057 150.09C48.6432 150.155 47.8398 150.552 47.2652 151.199C46.6906 151.845 46.3897 152.69 46.4262 153.554C46.4627 154.418 46.8337 155.234 47.4608 155.83L47.4681 155.837L47.4757 155.844L53.6015 161.289L53.6017 161.289C54.2506 161.866 55.0988 162.166 55.9659 162.127C56.833 162.088 57.6506 161.712 58.2449 161.079L58.2452 161.079L68.4577 150.188ZM35.0498 130.546C37.4882 128.108 40.7955 126.738 44.2439 126.738H71.4701C74.9185 126.738 78.2257 128.108 80.6642 130.546C83.1026 132.985 84.4725 136.292 84.4725 139.741V166.967C84.4725 170.415 83.1026 173.722 80.6642 176.161C78.2257 178.599 74.9185 179.969 71.4701 179.969H44.2439C40.7955 179.969 37.4882 178.599 35.0498 176.161C32.6114 173.722 31.2415 170.415 31.2415 166.967L31.2415 139.741C31.2415 136.292 32.6114 132.985 35.0498 130.546Z" fill="white" stroke="white" stroke-width="1.22125"/>
<path d="M108.891 139.744L258.634 139.744M108.891 166.97H178.658" stroke="white" stroke-width="5.49561" stroke-linecap="round" stroke-linejoin="round"/>
<path d="M68.4597 238.673L68.4599 238.672C68.7593 238.353 68.9928 237.978 69.1471 237.568C69.3014 237.158 69.3735 236.722 69.3593 236.284C69.345 235.847 69.2447 235.416 69.0641 235.017C68.8835 234.618 68.6261 234.259 68.3066 233.96C67.987 233.66 67.6117 233.427 67.2019 233.272C66.7921 233.118 66.356 233.046 65.9184 233.06C65.4807 233.074 65.0502 233.175 64.6513 233.355C64.2525 233.536 63.8931 233.793 63.5937 234.113L55.6065 242.636L51.9045 239.348L51.897 239.341L51.8893 239.335C51.2241 238.782 50.3701 238.509 49.5077 238.574C48.6452 238.639 47.8418 239.037 47.2671 239.683C46.6925 240.33 46.3917 241.174 46.4282 242.038C46.4647 242.903 46.8356 243.719 47.4627 244.314L47.4701 244.321L47.4776 244.328L53.6035 249.773L53.6036 249.773C54.2526 250.35 55.1008 250.65 55.9679 250.611C56.835 250.572 57.6526 250.196 58.2468 249.563L58.2472 249.563L68.4597 238.673ZM35.0518 219.031C37.4902 216.592 40.7974 215.222 44.2459 215.222H71.472C74.9205 215.222 78.2277 216.592 80.6661 219.031C83.1045 221.469 84.4744 224.776 84.4744 228.225V255.451C84.4744 258.899 83.1045 262.207 80.6661 264.645C78.2277 267.084 74.9205 268.453 71.472 268.453H44.2459C40.7974 268.453 37.4902 267.084 35.0518 264.645C32.6133 262.207 31.2434 258.899 31.2434 255.451L31.2434 228.225C31.2434 224.776 32.6133 221.469 35.0518 219.031Z" fill="white" stroke="white" stroke-width="1.22125"/>
<path d="M108.895 228.228L258.638 228.228M108.895 255.454H178.661" stroke="white" stroke-width="5.49561" stroke-linecap="round" stroke-linejoin="round"/>
<defs>
<linearGradient id="paint0_linear_10985_1642" x1="147.46" y1="0.212402" x2="147.46" y2="421.212" gradientUnits="userSpaceOnUse">
<stop stop-color="#3E9AF8"/>
<stop offset="1" stop-color="#3E9AF8" stop-opacity="0"/>
</linearGradient>
</defs>
</svg>

<svg width="295" height="374" fill="none" xmlns="http://www.w3.org/2000/svg"><rect y=".212" width="294.919" height="421" rx="8" fill="url(#a)" fill-opacity=".2"/><path d="M68.458 61.705a3.334 3.334 0 1 0-4.866-4.56l-7.987 8.524-3.702-3.29-.008-.006-.008-.006a3.334 3.334 0 0 0-4.426 4.98l.007.007.008.006 6.126 5.446a3.333 3.333 0 0 0 4.643-.21l10.213-10.891ZM35.05 42.063a13.003 13.003 0 0 1 9.194-3.808H71.47a13.003 13.003 0 0 1 13.002 13.002v27.226A13.002 13.002 0 0 1 71.47 91.486H44.244A13.002 13.002 0 0 1 31.24 78.483V51.257c0-3.448 1.37-6.756 3.809-9.194Z" fill="#fff" stroke="#fff" stroke-width="1.221"/><path d="M108.891 51.26h149.743M108.891 78.486h69.767" stroke="#fff" stroke-width="5.496" stroke-linecap="round" stroke-linejoin="round"/><path d="M68.458 150.188a3.328 3.328 0 0 0 .9-2.388 3.333 3.333 0 0 0-5.766-2.171l-7.987 8.523-3.702-3.289-.008-.006-.008-.007a3.333 3.333 0 0 0-4.426 4.98l.007.007.008.007 6.126 5.445a3.332 3.332 0 0 0 4.643-.21l10.213-10.891ZM35.05 130.546a13.004 13.004 0 0 1 9.194-3.808H71.47a13.004 13.004 0 0 1 13.002 13.003v27.226a13.004 13.004 0 0 1-13.002 13.002H44.244a13.004 13.004 0 0 1-13.003-13.002v-27.226c0-3.449 1.37-6.756 3.809-9.195Z" fill="#fff" stroke="#fff" stroke-width="1.221"/><path d="M108.891 139.744h149.743M108.891 166.97h69.767" stroke="#fff" stroke-width="5.496" stroke-linecap="round" stroke-linejoin="round"/><path d="M68.46 238.673v-.001a3.323 3.323 0 0 0 .9-2.388 3.34 3.34 0 0 0-2.158-3.012 3.345 3.345 0 0 0-2.55.083 3.335 3.335 0 0 0-1.058.758l-7.988 8.523-3.702-3.288-.007-.007-.008-.006a3.334 3.334 0 0 0-4.426 4.979l.007.007.008.007 6.125 5.445a3.332 3.332 0 0 0 4.644-.21l10.213-10.89Zm-33.408-19.642a13 13 0 0 1 9.194-3.809h27.226a13 13 0 0 1 13.002 13.003v27.226a13.002 13.002 0 0 1-13.002 13.002H44.246a13 13 0 0 1-13.003-13.002v-27.226a13 13 0 0 1 3.809-9.194Z" fill="#fff" stroke="#fff" stroke-width="1.221"/><path d="M108.895 228.228h149.743m-149.743 27.226h69.766" stroke="#fff" stroke-width="5.496" stroke-linecap="round" stroke-linejoin="round"/><defs><linearGradient id="a" x1="147.46" y1=".212" x2="147.46" y2="421.212" gradientUnits="userSpaceOnUse"><stop stop-color="#3E9AF8"/><stop offset="1" stop-color="#3E9AF8" stop-opacity="0"/></linearGradient></defs></svg>
